other/units.svg

<?xml version="1.0" encoding="UTF-8" standalone="no"?>
<svg width="48" height="48" viewBox="0 0 48 48" version="1.1" xmlns="http://www.w3.org/2000/svg">
    <defs>
        <style>.cls-1{fill:#fff;}</style>
    </defs>
    <path
         d="M 7 5 C 5.892 5 5 5.892 5 7 L 5 41 C 5 42.108 5.892 43 7 43 L 41 43 C 42.108 43 43 42.108 43 41 L 43 7 C 43 5.892 42.108 5 41 5 L 7 5 z M 16.605469 7.1445312 L 19.498047 7.1445312 L 19.498047 9.5039062 L 16.605469 9.5039062 L 16.605469 7.1445312 z M 28.203125 10.449219 C 29.24843 10.449219 30.039308 10.770917 30.578125 11.412109 C 31.12233 12.053302 31.394531 12.985869 31.394531 14.208984 L 31.394531 19.720703 L 28.486328 19.720703 L 28.486328 18.822266 L 28.486328 15.501953 C 28.486328 14.720668 28.467405 14.181115 28.429688 13.884766 C 28.397358 13.588416 28.338164 13.370561 28.251953 13.230469 C 28.138802 13.041883 27.98499 12.895344 27.791016 12.792969 C 27.597041 12.685205 27.374809 12.632812 27.126953 12.632812 C 26.523478 12.632812 26.049921 12.867165 25.705078 13.335938 C 25.360235 13.799319 25.1875 14.443188 25.1875 15.267578 L 25.1875 19.720703 L 22.294922 19.720703 L 22.294922 10.667969 L 25.1875 10.667969 L 25.1875 11.994141 C 25.623942 11.4661 26.087801 11.077934 26.578125 10.830078 C 27.068449 10.576834 27.610426 10.449219 28.203125 10.449219 z M 16.605469 10.667969 L 19.498047 10.667969 L 19.498047 19.720703 L 16.605469 19.720703 L 16.605469 10.667969 z M 18.818359 22.767578 L 29.181641 22.767578 L 29.181641 24.666016 L 18.818359 24.666016 L 18.818359 22.767578 z M 18.818359 26.445312 L 29.181641 26.445312 L 29.181641 28.359375 L 18.818359 28.359375 L 18.818359 26.445312 z M 16.685547 31.408203 C 17.159706 31.408203 17.62599 31.450899 18.083984 31.537109 C 18.547367 31.617932 19.008802 31.74117 19.466797 31.908203 L 19.466797 34.267578 C 19.07346 33.99817 18.676068 33.799238 18.277344 33.669922 C 17.884007 33.540606 17.474494 33.476562 17.048828 33.476562 C 16.240602 33.476562 15.61081 33.713341 15.158203 34.1875 C 14.710985 34.656271 14.486328 35.314213 14.486328 36.160156 C 14.486328 37.006099 14.710985 37.666466 15.158203 38.140625 C 15.61081 38.609396 16.240602 38.84375 17.048828 38.84375 C 17.501435 38.84375 17.929871 38.775329 18.333984 38.640625 C 18.743485 38.505921 19.121954 38.306989 19.466797 38.042969 L 19.466797 40.410156 C 19.01419 40.57719 18.552755 40.702381 18.083984 40.783203 C 17.620602 40.869414 17.154318 40.912109 16.685547 40.912109 C 15.052931 40.912109 13.776846 40.495323 12.855469 39.660156 C 11.934091 38.819601 11.472656 37.65268 11.472656 36.160156 C 11.472656 34.667633 11.934091 33.503135 12.855469 32.667969 C 13.776846 31.827414 15.052931 31.408203 16.685547 31.408203 z M 27.621094 31.408203 C 28.246122 31.408203 28.797796 31.557637 29.277344 31.859375 C 29.756891 32.161113 30.121285 32.584701 30.369141 33.128906 C 30.735536 32.568536 31.168822 32.142525 31.669922 31.851562 C 32.17641 31.555213 32.732461 31.408203 33.335938 31.408203 C 34.375855 31.408203 35.166732 31.727948 35.710938 32.369141 C 36.255142 33.010333 36.527344 33.942901 36.527344 35.166016 L 36.527344 40.677734 L 33.617188 40.677734 L 33.617188 35.957031 C 33.622576 35.886985 33.625 35.815669 33.625 35.740234 C 33.630388 35.6648 33.634766 35.556108 33.634766 35.416016 C 33.634766 34.774823 33.540149 34.310964 33.351562 34.025391 C 33.162976 33.734429 32.857777 33.589844 32.4375 33.589844 C 31.887906 33.589844 31.461894 33.814972 31.160156 34.267578 C 30.863807 34.720185 30.709995 35.375703 30.699219 36.232422 L 30.699219 40.677734 L 27.791016 40.677734 L 27.791016 35.957031 C 27.791016 34.954831 27.703671 34.310964 27.53125 34.025391 C 27.358829 33.734429 27.053158 33.589844 26.611328 33.589844 C 26.056346 33.589844 25.627909 33.819349 25.326172 34.277344 C 25.024434 34.72995 24.873047 35.378666 24.873047 36.224609 L 24.873047 40.677734 L 21.962891 40.677734 L 21.962891 31.625 L 24.873047 31.625 L 24.873047 32.951172 C 25.228666 32.439296 25.635755 32.053554 26.09375 31.794922 C 26.557133 31.53629 27.066112 31.408203 27.621094 31.408203 z "
        id="rect945"
        class="cls-1" />
</svg>

<?xml version="1.0" encoding="UTF-8"?>
<svg version="1.1" viewBox="0 0 48 48" xmlns="http://www.w3.org/2000/svg">
    <defs>
        <style>.cls-1{fill:#fff;}</style>
    </defs>
    <path class="cls-1" d="m7 5c-1.108 0-2 0.892-2 2v34c0 1.108 0.892 2 2 2h34c1.108 0 2-0.892 2-2v-34c0-1.108-0.892-2-2-2h-34zm9.6055 2.1445h2.8926v2.3594h-2.8926v-2.3594zm11.598 3.3047c1.0453 0 1.8362 0.3217 2.375 0.96289 0.5442 0.64119 0.81641 1.5738 0.81641 2.7969v5.5117h-2.9082v-4.2187c0-0.78128-0.018923-1.3208-0.05664-1.6172-0.03233-0.29635-0.091524-0.5142-0.17774-0.6543-0.11315-0.18859-0.26696-0.33512-0.46094-0.4375-0.19398-0.10776-0.41621-0.16016-0.66406-0.16016-0.60348 0-1.077 0.23435-1.4219 0.70313-0.34484 0.46338-0.51758 1.1072-0.51758 1.9316v4.4531h-2.8926v-9.0527h2.8926v1.3262c0.43644-0.52804 0.9003-0.91621 1.3906-1.1641 0.49032-0.25324 1.0323-0.38086 1.625-0.38086zm-11.598 0.21875h2.8926v9.0527h-2.8926v-9.0527zm2.2129 12.1h10.363v1.8984h-10.363v-1.8984zm0 3.6777h10.363v1.9141h-10.363v-1.9141zm-2.1328 4.9629c0.47416 0 0.94044 0.042696 1.3984 0.12891 0.46338 0.080823 0.92482 0.20406 1.3828 0.37109v2.3594c-0.39334-0.26941-0.79073-0.46834-1.1895-0.59766-0.39334-0.12932-0.80285-0.19336-1.2285-0.19336-0.80823 0-1.438 0.23678-1.8906 0.71094-0.44722 0.46877-0.67188 1.1267-0.67188 1.9727s0.22466 1.5063 0.67188 1.9805c0.45261 0.46877 1.0824 0.70312 1.8906 0.70312 0.45261 0 0.88104-0.068421 1.2852-0.20312 0.4095-0.1347 0.78797-0.33364 1.1328-0.59766v2.3672c-0.45261 0.16703-0.91404 0.29222-1.3828 0.37305-0.46338 0.086211-0.92967 0.12891-1.3984 0.12891-1.6326 0-2.9087-0.41679-3.8301-1.252-0.92138-0.84056-1.3828-2.0075-1.3828-3.5s0.46144-2.657 1.3828-3.4922c0.92138-0.84056 2.1975-1.2598 3.8301-1.2598zm10.936 0c0.62503 0 1.1767 0.14943 1.6562 0.45117 0.47955 0.30174 0.84394 0.72533 1.0918 1.2695 0.3664-0.56037 0.79968-0.98638 1.3008-1.2773 0.50649-0.29635 1.0625-0.44336 1.666-0.44336 1.0399 0 1.8308 0.31974 2.375 0.96094 0.5442 0.64119 0.81641 1.5738 0.81641 2.7969v5.5117h-2.9102v-4.7207c0.005388-0.070046 0.007812-0.14136 0.007812-0.2168 0.005388-0.075434 0.009766-0.18413 0.009766-0.32422 0-0.64119-0.094617-1.1051-0.2832-1.3906-0.18859-0.29096-0.49378-0.43555-0.91406-0.43555-0.54959 0-0.97561 0.22513-1.2773 0.67773-0.29635 0.45261-0.45016 1.1081-0.46094 1.9648v4.4453h-2.9082v-4.7207c0-1.0022-0.087345-1.6461-0.25977-1.9316-0.17242-0.29096-0.47809-0.43555-0.91992-0.43555-0.55498 0-0.98342 0.2295-1.2852 0.6875-0.30174 0.45261-0.45312 1.1013-0.45312 1.9473v4.4531h-2.9102v-9.0527h2.9102v1.3262c0.35562-0.51188 0.76271-0.89762 1.2207-1.1562 0.46338-0.25863 0.97236-0.38672 1.5273-0.38672z"/>
</svg>
